symbolic/24x24/actions/y-zoom-in.svg

<svg xmlns="http://www.w3.org/2000/svg" width="24" height="24"><defs><style id="current-color-scheme" type="text/css"></style></defs><path style="fill:currentColor;color:#323a41" d="M3 2C2 2 2 3 2 3v4h2V4h3V2zm9 7v3H9v2h4c1 0 1-1 1-1V9zM2 8v6h6V8zm9-6L8 5h2v3h2V5h2z" transform="translate(4 4)"/></svg>

<svg xmlns="http://www.w3.org/2000/svg" width="24" height="24" version="1.1">
 <defs>
  <style id="current-color-scheme" type="text/css">
   .ColorScheme-Text { color:#323a41; } .ColorScheme-Highlight { color:#4285f4; } .ColorScheme-NeutralText { color:#ff9800; } .ColorScheme-PositiveText { color:#4caf50; } .ColorScheme-NegativeText { color:#f44336; }
  </style>
 </defs>
 <g transform="translate(4,4)">
  <path style="fill:currentColor" class="ColorScheme-Text" d="M 3,2 C 2,2 2,3 2,3 V 7 H 4 V 4 H 7 V 2 Z M 12,9 V 12 H 9 V 14 H 13 C 14,14 14,13 14,13 V 9 Z M 2,8 V 14 H 8 V 8 Z M 11,2 8,5 H 10 V 8 H 12 V 5 H 14 Z"/>
 </g>
</svg>
